!!!COM: Manuel de Falla (y Matheu)
!!!OTL: [T301_Fal-w1p67m127-150]
**kern	**dynam	**kern	**dynam	**kern	**dynam	**kern	**dynam	**kern	**dynam	**kern	**dynam	**kern	**kern	**dynam	**kern	**dynam	**kern	**dynam	**kern	**dynam	**kern	**kern	**kern	**dynam	**kern	**dynam	**kern	**dynam	**kern	**dynam	**kern	**dynam	**kern	**dynam	**kern	**dynam	**kern	**dynam	**kern	**dynam	**kern	**dynam
*part22	*part22	*part21	*part21	*part20	*part20	*part19	*part19	*part18	*part18	*part17	*part17	*part16	*part16	*part16	*part15	*part15	*part14	*part14	*part13	*part13	*part12	*part11	*part10	*part10	*part9	*part9	*part8	*part8	*part7	*part7	*part6	*part6	*part5	*part5	*part4	*part4	*part3	*part3	*part2	*part2	*part1	*part1
*staff23	*	*staff22	*	*staff21	*	*staff20	*	*staff19	*	*staff18	*	*staff17	*staff16	*	*staff15	*	*staff14	*	*staff13	*	*staff12	*staff11	*staff10	*	*staff9	*	*staff8	*	*staff7	*	*staff6	*	*staff5	*	*staff4	*	*staff3	*	*staff2	*	*staff1	*
*I"Contrabass	*	*I"Violoncello	*	*I"Violoncello	*	*I"Viola	*	*I"Violin II	*	*I"Violin I	*	*I"Harp	*	*	*I"Triangle	*	*I"Castanets	*	*I"Timpani	*	*I"Tuba	*I"Trombone 1.2.	*I"Trumpet in C 1.2.	*	*I"Horn in F 3.4.	*	*I"Horn in F 1.2.	*	*I"Bassoon 1.2.	*	*I"Bass Clarinet in A	*	*I"Clarinet in A 1.2.	*	*I"English Horn	*	*I"Oboe 1.2.	*	*I"Piccolo	*	*I"Flute 1.2.	*
*I'Cb.	*	*I'Vc.	*	*I'Vc.	*	*I'Vla.	*	*I'Vln. II	*	*I'Vln. I	*	*I'Hp.	*	*	*I'Tri.	*	*I'Cast.	*	*I'Timp.	*	*I'Tba.	*I'1.2. Tbn.	*I'1.2. C Tpt.	*	*I'3.4. Hn.	*	*I'1.2. Hn.	*	*I'1.2. Bsn.	*	*I'A B.Cl.	*	*I'1.2. A Cl.	*	*I'Eng. Hn.	*	*I'1.2. Ob.	*	*I'Picc.	*	*I'1.2. Fl.	*
!!pagebreak:original
*	*	*	*	*	*	*	*	*	*	*	*	*	*	*	*stria1	*	*stria1	*	*	*	*	*	*	*	*	*	*	*	*	*	*	*	*	*	*	*	*	*	*	*	*	*
*clefF4	*	*clefF4	*	*clefF4	*	*clefC3	*	*clefG2	*	*clefG2	*	*clefF4	*clefG2	*	*clefX	*	*clefX	*	*clefF4	*	*clefF4	*clefF4	*clefG2	*	*clefG2	*	*clefG2	*	*clefF4	*	*clefF4	*	*clefG2	*	*clefG2	*	*clefG2	*	*clefG2	*	*clefG2	*
*ITrd0c0	*	*	*	*	*	*	*	*	*	*	*	*	*	*	*	*	*	*	*	*	*	*	*	*	*ITrd4c7	*	*ITrd4c7	*	*	*	*ITrd2c3	*	*ITrd2c3	*	*ITrd4c7	*	*	*	*ITrd0c0	*	*	*
*k[]	*	*k[]	*	*k[]	*	*k[]	*	*k[]	*	*k[]	*	*k[]	*k[]	*	*k[]	*	*k[]	*	*k[]	*	*k[]	*k[]	*k[]	*	*k[b-]	*	*k[b-]	*	*k[]	*	*k[f#c#g#]	*	*k[f#c#g#]	*	*k[b-]	*	*k[]	*	*k[]	*	*k[]	*
*	*	*	*	*	*	*	*	*	*	*	*	*	*	*	*C:	*	*C:	*	*	*	*	*	*	*	*	*	*	*	*	*	*	*	*	*	*	*	*	*	*	*	*	*
*M3/8	*	*M3/8	*	*M3/8	*	*M3/8	*	*M3/8	*	*M3/8	*	*M3/8	*M3/8	*	*M3/8	*	*M3/8	*	*M3/8	*	*M3/8	*M3/8	*M3/8	*	*M3/8	*	*M3/8	*	*M3/8	*	*M3/8	*	*M3/8	*	*M3/8	*	*M3/8	*	*M3/8	*	*M3/8	*
=1	=1	=1	=1	=1	=1	=1	=1	=1	=1	=1	=1	=1	=1	=1	=1	=1	=1	=1	=1	=1	=1	=1	=1	=1	=1	=1	=1	=1	=1	=1	=1	=1	=1	=1	=1	=1	=1	=1	=1	=1	=1	=1
*	*	*	*	*	*	*	*	*	*	*	*	*	*	*	*	*	*	*	*	*	*	*	*	*	*	*	*	*	*	*	*	*	*^	*	*	*	*	*	*	*	*	*
!	!	!	!	!	!	!	!	!	!	!	!	!	!	!	!	!	!	!	!	!	!	!	!	!	!	!	!	!	!	!	!	!	!	!	!	!	!	!	!	!	!	!LO:TX:t=[quarter-dot]=60	!
!LO:TX:a:t=[1a metà, pizz.]	!	!LO:TX:a:t=[unis., pizz.]	!	!LO:TX:a:t=[unis., pizz.]	!	!	!	!	!	!	!	!	!	!	!	!	!	!	!	!	!	!	!	!	!	!	!	!	!	!	!	!	!	!	!	!	!	!	!	!	!	!LO:TX:a:t=[1o]	!
!LO:TX:b:t=[p]	!	!LO:TX:b:t=[p]	!	!LO:TX:b:t=[p]	!	!LO:TX:b:t=[pp]	!	!LO:TX:b:t=[pp]	!	!	!	!	!LO:TX:b:t=[p]	!	!	!	!	!	!	!	!	!	!LO:TX:a:t=[con sord.]	!	!	!	!	!	!	!	!	!	!LO:TX:b:t=[pp]	!	!	!LO:TX:b:t=[pp]	!	!	!	!LO:TX:b:t=[pp]	!	!LO:TX:b:t=[pp]	!
8B	.	8BBL	.	8BBL	.	((16dLL	>	((16dLL	>	8%3r	.	8BBL	8%3r	.	8%3r	.	8%3r	.	8%3r	.	8%3r	8%3r	8r	.	8%3r	.	8%3r	.	8%3r	.	8%3r	.	(16eeLL	(16ELL	.	(16ELL	.	8%3r	.	(16eeLL	.	(16eeLL	.
.	.	.	.	.	.	16e	.	16e	.	.	.	.	.	.	.	.	.	.	.	.	.	.	.	.	.	.	.	.	.	.	.	.	16ff#	16F#	.	16F#X	.	.	.	16ff#X	.	16ff#X	.
!	!	!	!	!	!	!	!	!	!	!	!	!	!	!	!	!	!	!	!	!	!	!	!LO:TX:b:t=[pp]	!	!	!	!	!	!	!	!	!	!	!	!	!	!	!	!	!	!	!	!
8r	.	8E	.	8E	.	16d	.	16d	.	.	.	8E	.	.	.	.	.	.	.	.	.	.	16f#X'LL 16dd	.	.	.	.	.	.	.	.	.	16gg#	16G#	.	16G#X	.	.	.	16gg#X	.	16gg#X	.
.	.	.	.	.	.	16e	.	16e	.	.	.	.	.	.	.	.	.	.	.	.	.	.	16f#'JJ 16dd	.	.	.	.	.	.	.	.	.	16aa	16A	.	16A	.	.	.	16aa	.	16aa	.
8r	.	8EEJ	.	8EEJ	.	16d	.	16d	.	.	.	8EEJ	.	.	.	.	.	.	.	.	.	.	8e' 8ee	.	.	.	.	.	.	.	.	.	16ff#	16F#	.	16F#	.	.	.	16ff#	.	16ff#	.
.	.	.	.	.	.	16eJJ))	]	16eJJ))	]	.	.	.	.	.	.	.	.	.	.	.	.	.	.	.	.	.	.	.	.	.	.	.	16gg#JJ	16G#JJ	.	16G#JJ)	.	.	.	16gg#JJ)	.	16gg#JJ)	.
=2	=2	=2	=2	=2	=2	=2	=2	=2	=2	=2	=2	=2	=2	=2	=2	=2	=2	=2	=2	=2	=2	=2	=2	=2	=2	=2	=2	=2	=2	=2	=2	=2	=2	=2	=2	=2	=2	=2	=2	=2	=2	=2	=2
*	*	*	*	*	*	*	*	*	*	*	*	*	*	*	*	*	*	*	*	*	*	*	*	*	*	*	*	*	*^	*	*	*	*	*	*	*	*	*	*	*	*	*	*
!	!	!	!	!	!	!	!	!	!	!LO:TX:b:t=p cresc.	!	!	!	!	!	!	!	!	!	!	!	!	!	!	!	!	!	!	!	!	!	!	!	!	!	!	!	!	!	!	!	!	!	!
8A	.	8AA	.	8AA	.	16r	.	8r	.	(16eeLL	<	8AA	8%3r	.	8%3r	.	8%3r	.	4.Et	pp < [	8%3r	8%3r	8r	.	8%3r	.	8%3r	.	[4.c	(4.AA	p < [ > ]	(4.AA	p < [	8ee')	8E')	.	[4.E	< [	8%3r	.	(16eeLL	<	(16eeLL	<
!	!	!	!	!	!	!LO:TX:b:i:t=cresc.	!	!	!	!	!	!	!	!	!	!	!	!	!	!	!	!	!	!	!	!	!	!	!	!	!	!	!	!	!	!	!	!	!	!	!	!	!	!
.	.	.	.	.	.	((16f#XLL	<	.	.	16ff#X	.	.	.	.	.	.	.	.	.	.	.	.	.	.	.	.	.	.	.	.	.	.	.	.	.	.	.	.	.	.	16ff#X	.	16ff#X	.
!	!	!LO:TX:b:i:t=cresc.	!	!LO:TX:b:i:t=cresc.	!	!	!	!LO:TX:b:t=p cresc.	!	!	!	!	!	!	!	!	!	!	!	!	!	!	!LO:TX:b:i:t=meno	!	!	!	!	!	!	!	!	!	!	!	!	!	!	!	!	!	!	!	!	!
8r	.	8r	.	8r	.	16c	.	(16gg#XLL	<	16gg#X	.	8r	.	.	.	.	.	.	.	.	.	.	16f#X'LL 16cc	p	.	.	.	.	.	.	.	.	.	8r	8r	.	.	.	.	.	16gg#X	.	16gg#X	.
.	.	.	.	.	.	16f#	.	16aa	.	16aa	.	.	.	.	.	.	.	.	.	.	.	.	16f#'JJ 16cc	.	.	.	.	.	.	.	.	.	.	.	.	.	.	.	.	.	16aa	.	16aa	.
8r	.	8AA	.	8AA	.	16c	.	16bb	.	16bb	.	8r	.	.	.	.	.	.	.	.	.	.	8e' 8ee	.	.	.	.	.	.	.	.	.	.	8r	8r	.	.	.	.	.	16bb	.	16bb	.
.	.	.	.	.	.	16eJJ)	[	16cccJJ)	[	16cccJJ)	[	.	.	.	.	.	.	.	.	.	.	.	.	.	.	.	.	.	.	.	.	.	.	.	.	.	.	.	.	.	16cccJJ)	[	16cccJJ)	[
*	*	*	*	*	*	*	*	*	*	*	*	*	*	*	*	*	*	*	*	*	*	*	*	*	*	*	*	*	*	*	*	*	*	*v	*v	*	*	*	*	*	*	*	*	*
=3	=3	=3	=3	=3	=3	=3	=3	=3	=3	=3	=3	=3	=3	=3	=3	=3	=3	=3	=3	=3	=3	=3	=3	=3	=3	=3	=3	=3	=3	=3	=3	=3	=3	=3	=3	=3	=3	=3	=3	=3	=3	=3	=3
!	!	!	!	!	!	!	!	!	!	!	!	!	!	!	!	!	!	!	!	!	!	!	!	!	!	!	!	!	!	!	!	!	!	!	!	!	!	!	!	!LO:TX:b:i:t=  molto dim.	!	!LO:TX:b:i:t=  molto dim.	!
8A-X~	.	8AA-X~	.	8AA-X~	.	(16cLL	>	8eee'	f	8eee'	f	8AA-X	8%3r	.	8%3r	.	8%3r	.	4.E	> ]	8%3r	8%3r	8r	.	8%3r	.	8%3r	.	4.c_	(4.AA-X)	>	(4.AA-X)	> ]	8%3r	.	4.E]	> ]	8%3r	.	(16%3.eeet	f	(16%3.eeet	f
.	.	.	.	.	.	16f#X	.	.	.	.	.	.	.	.	.	.	.	.	.	.	.	.	.	.	.	.	.	.	.	.	.	.	.	.	.	.	.	.	.	.	.	.	.
!	!	!LO:TX:b:i:t=dim.	!	!LO:TX:b:i:t=dim.	!	!	!	!	!	!	!	!	!	!	!	!	!	!	!	!	!	!	!	!	!	!	!	!	!	!	!	!	!	!	!	!	!	!	!	!	!	!	!
8r	.	8r	.	8r	.	16c	.	4ee~	> ]	4ee~	> ]	8r	.	.	.	.	.	.	.	.	.	.	16f#X'LL 16cc	pp	.	.	.	.	.	.	.	.	.	.	.	.	.	.	.	.	.	.	.
.	.	.	.	.	.	16f#	.	.	.	.	.	.	.	.	.	.	.	.	.	.	.	.	16f#'JJ 16cc	.	.	.	.	.	.	.	.	.	.	.	.	.	.	.	.	.	.	.	.
8r	.	8AA-	.	8AA-	.	16c	.	.	.	.	.	8r	.	.	.	.	.	.	.	.	.	.	8e' 8ee	.	.	.	.	.	.	.	.	.	.	.	.	.	.	.	.	.	.	.	.
.	.	.	.	.	.	.	.	.	.	.	.	.	.	.	.	.	.	.	.	.	.	.	.	.	.	.	.	.	.	.	.	.	.	.	.	.	.	.	.	64%3ddd#XLL	.	64%3ddd#XLL	.
.	.	.	.	.	.	16f#JJ))	]	.	.	.	.	.	.	.	.	.	.	.	.	.	.	.	.	.	.	.	.	.	.	.	.	.	.	.	.	.	.	.	.	.	.	.	.
.	.	.	.	.	.	.	.	.	.	.	.	.	.	.	.	.	.	.	.	.	.	.	.	.	.	.	.	.	.	.	.	.	.	.	.	.	.	.	.	64%3eeeJJ)	.	64%3eeeJJ)	.
=4	=4	=4	=4	=4	=4	=4	=4	=4	=4	=4	=4	=4	=4	=4	=4	=4	=4	=4	=4	=4	=4	=4	=4	=4	=4	=4	=4	=4	=4	=4	=4	=4	=4	=4	=4	=4	=4	=4	=4	=4	=4	=4	=4
*	*	*	*	*	*	*	*	*	*	*	*	*	*	*	*	*	*	*	*	*	*	*	*	*	*^	*	*	*	*	*	*	*	*	*^	*	*	*	*	*	*	*	*	*
!	!	!	!	!	!	!	!	!	!	!	!	!	!	!	!	!	!	!	!	!	!	!	!	!	!LO:TX:a:t=[con sord.]	!	!	!	!	!	!	!	!	!	!	!	!	!	!	!	!	!	!	!	!
8G	p	8GG	p	8GG	p	16r	.	8r	.	8r	.	8GGL	8r	.	8%3r	.	8%3r	.	8%3r	.	8%3r	8%3r	8%3r	.	8r	8%3r	.	8r	.	8c]	4GG)	pp ]	4GGX)	pp	(4.e~	([4.cX	p < [	[4.G	p < [	8r	.	8r	.	8r	.
.	.	.	.	.	.	((16eLL	p <	.	.	.	.	.	.	.	.	.	.	.	.	.	.	.	.	.	.	.	.	.	.	.	.	.	.	.	.	.	.	.	.	.	.	.	.	.	.
!	!	!	!	!	!	!	!	!	!	!	!	!	!	!	!	!	!	!	!	!	!	!	!	!	!	!	!	!	!	!	!	!	!	!	!	!	!	!	!	!LO:TX:b:t=p ma marc.	!	!	!	!LO:TX:a:t=2o	!
8r	.	8r	.	8r	.	16c	.	([4gg~	p	([4gg~	p	8G	8gL	mf	.	.	.	.	.	.	.	.	.	.	8r	.	.	8G~ 8g	pp	8r	.	.	.	.	.	.	.	.	.	16e'LL 16g	.	([4g~	f	([4gg~	mf
.	.	.	.	.	.	16e	.	.	.	.	.	.	.	.	.	.	.	.	.	.	.	.	.	.	.	.	.	.	.	.	.	.	.	.	.	.	.	.	.	16e'JJ 16g	.	.	.	.	.
*	*	*	*	*	*	*	*	*	*	*	*	*	*	*	*	*	*	*	*	*	*	*	*	*	*	*	*	*	*	*	*	*	*^	*	*	*	*	*	*	*	*	*	*	*	*
!	!	!	!	!	!	!	!	!	!	!	!	!	!	!	!	!	!	!	!	!	!	!	!	!	!LO:TX:b:t=[pp]	!	!	!	!	!	!	!	!	!	!	!	!	!	!	!	!	!	!	!	!	!
8G	.	8GG	.	8GG	.	16c	.	.	.	.	.	8GGJ	8eJ	.	.	.	.	.	.	.	.	.	.	.	8e'	.	.	8r	.	8r	8r	.	8ryy	8r	.	.	.	.	.	.	8e'~ 8b	.	.	.	.	.
.	.	.	.	.	.	16eJJ)	[	.	.	.	.	.	.	.	.	.	.	.	.	.	.	.	.	.	.	.	.	.	.	.	.	.	.	.	.	.	.	.	.	.	.	.	.	.	.	.
*	*	*	*	*	*	*	*	*	*	*	*	*	*	*	*	*	*	*	*	*	*	*	*	*	*	*	*	*	*	*v	*v	*	*	*	*	*	*	*	*	*	*	*	*	*	*	*
*	*	*	*	*	*	*	*	*	*	*	*	*	*	*	*	*	*	*	*	*	*	*	*	*	*	*	*	*	*	*	*	*v	*v	*	*	*	*	*	*	*	*	*	*	*	*
=5	=5	=5	=5	=5	=5	=5	=5	=5	=5	=5	=5	=5	=5	=5	=5	=5	=5	=5	=5	=5	=5	=5	=5	=5	=5	=5	=5	=5	=5	=5	=5	=5	=5	=5	=5	=5	=5	=5	=5	=5	=5	=5	=5	=5
8d	.	8DL	.	8DL	.	(16cLL	>	16ggLL]	.	16ggLL]	.	8DL	8fL	.	8%3r	.	8%3r	.	8%3r	.	8%3r	8%3r	8%3r	.	8f'	8%3r	.	8r	.	8%3r	.	8%3r	.	4.fX~	4c]	>	4.G_	> ]	8r	.	16gLL]	.	16ggLL]	.
.	.	.	.	.	.	16fn	.	16aa	.	16aa	.	.	.	.	.	.	.	.	.	.	.	.	.	.	.	.	.	.	.	.	.	.	.	.	.	.	.	.	.	.	16a	.	16aa	.
8r	.	8G	.	8G	.	16c	.	16bb	.	16bb	.	8G	8g	.	.	.	.	.	.	.	.	.	.	.	8r	.	.	8G~ 8g	.	.	.	.	.	.	.	.	.	.	16f'LL 16g	.	16b	.	16bb	.
.	.	.	.	.	.	16f	.	16ccc	.	16ccc	.	.	.	.	.	.	.	.	.	.	.	.	.	.	.	.	.	.	.	.	.	.	.	.	.	.	.	.	16f'JJ 16g	.	16cc	.	16ccc	.
8r	.	8GGJ	.	8GGJ	.	16B	.	16aa	.	16aa	.	8GGJ	8fJ	.	.	.	.	.	.	.	.	.	.	.	8f'	.	.	8r	.	.	.	.	.	.	8B	]	.	.	8f'~ 8b	.	16a	.	16aa	.
.	.	.	.	.	.	16fJJ))	]	16bbJJ	.	16bbJJ	.	.	.	.	.	.	.	.	.	.	.	.	.	.	.	.	.	.	.	.	.	.	.	.	.	.	.	.	.	.	16bJJ	.	16bbJJ	.
=6	=6	=6	=6	=6	=6	=6	=6	=6	=6	=6	=6	=6	=6	=6	=6	=6	=6	=6	=6	=6	=6	=6	=6	=6	=6	=6	=6	=6	=6	=6	=6	=6	=6	=6	=6	=6	=6	=6	=6	=6	=6	=6	=6	=6
8c	.	8C	.	8C	.	((16cLL	<	8gg')	.	8gg')	.	8CL	8eL	.	8%3r	.	8%3r	.	8%3r	.	8%3r	8%3r	8%3r	.	8e'	8%3r	.	8r	.	8%3r	.	8%3r	.	4.e)	4.cX)	.	4.G_	.	8r	.	[4.g	.	[4.gg	.
.	.	.	.	.	.	16e	.	.	.	.	.	.	.	.	.	.	.	.	.	.	.	.	.	.	.	.	.	.	.	.	.	.	.	.	.	.	.	.	.	.	.	.	.	.
8r	.	8r	.	8r	.	16c	.	([4gg~	.	([4gg~	.	8G	8g	.	.	.	.	.	.	.	.	.	.	.	8r	.	.	8G~ 8g	.	.	.	.	.	.	.	.	.	.	16e'LL 16g	.	.	.	.	.
.	.	.	.	.	.	16e	.	.	.	.	.	.	.	.	.	.	.	.	.	.	.	.	.	.	.	.	.	.	.	.	.	.	.	.	.	.	.	.	16e'JJ 16g	.	.	.	.	.
8G	.	8GG	.	8GG	.	16c	.	.	.	.	.	8GGJ	8eJ	.	.	.	.	.	.	.	.	.	.	.	8e'	.	.	8r	.	.	.	.	.	.	.	.	.	.	8e'~ 8b	.	.	.	.	.
.	.	.	.	.	.	16eJJ)	[	.	.	.	.	.	.	.	.	.	.	.	.	.	.	.	.	.	.	.	.	.	.	.	.	.	.	.	.	.	.	.	.	.	.	.	.	.
=7	=7	=7	=7	=7	=7	=7	=7	=7	=7	=7	=7	=7	=7	=7	=7	=7	=7	=7	=7	=7	=7	=7	=7	=7	=7	=7	=7	=7	=7	=7	=7	=7	=7	=7	=7	=7	=7	=7	=7	=7	=7	=7	=7	=7
8d	.	8DL	.	8DL	.	(16cLL	>	16ggLL]	.	16ggLL]	.	8DL	8fL	.	8%3r	.	8%3r	.	8%3r	.	8%3r	8%3r	8%3r	.	8f'	8%3r	.	8r	.	8%3r	.	8%3r	.	(4.fX~	(4cX~	>	4.G_	> ]	8r	.	16gLL]	.	16ggLL]	.
.	.	.	.	.	.	16f	.	16aa	.	16aa	.	.	.	.	.	.	.	.	.	.	.	.	.	.	.	.	.	.	.	.	.	.	.	.	.	.	.	.	.	.	16a	.	16aa	.
8r	.	8G	.	8G	.	16c	.	16bb	.	16bb	.	8G	8g	.	.	.	.	.	.	.	.	.	.	.	8r	.	.	8G~ 8g	.	.	.	.	.	.	.	.	.	.	16f'LL 16g	.	16b	.	16bb	.
.	.	.	.	.	.	16f	.	16ccc	.	16ccc	.	.	.	.	.	.	.	.	.	.	.	.	.	.	.	.	.	.	.	.	.	.	.	.	.	.	.	.	16f'JJ 16g	.	16cc	.	16ccc	.
8r	.	8GGJ	.	8GGJ	.	16B	.	16aa	.	16aa	.	8GGJ	8fJ	.	.	.	.	.	.	.	.	.	.	.	8f'	.	.	8r	.	.	.	.	.	.	8B	]	.	.	8f'~ 8b	.	16a	.	16aa	.
.	.	.	.	.	.	16fJJ))	]	16bbJJ	.	16bbJJ	.	.	.	.	.	.	.	.	.	.	.	.	.	.	.	.	.	.	.	.	.	.	.	.	.	.	.	.	.	.	16bJJ	.	16bbJJ	.
=8	=8	=8	=8	=8	=8	=8	=8	=8	=8	=8	=8	=8	=8	=8	=8	=8	=8	=8	=8	=8	=8	=8	=8	=8	=8	=8	=8	=8	=8	=8	=8	=8	=8	=8	=8	=8	=8	=8	=8	=8	=8	=8	=8	=8
*	*	*	*	*	*	*	*	*	*	*	*	*	*	*	*	*	*	*	*	*	*	*	*	*	*	*	*	*	*	*^	*	*	*	*	*	*	*	*	*	*	*	*	*^	*
!	!	!	!	!	!	!LO:TX:b:i:t=cresc.	!	!	!	!	!	!	!	!	!	!	!	!	!	!	!	!	!	!	!	!	!	!	!	!LO:TX:a:t=2o	!	!	!	!	!	!	!	!	!	!	!	!	!	!	!	!
8c	.	8C	.	8C	.	(16cLL	.	8gg')	.	8gg')	.	8CL	8eL	.	8%3r	.	8%3r	.	8%3r	.	8%3r	8%3r	8%3r	.	8e'	8%3r	.	8r	.	8%3r	8r	mf	8%3r	.	4.e)	4.cX)	.	(4G]	.	8r	.	4.g)	.	8r)	4gg	.
.	.	.	.	.	.	16e	.	.	.	.	.	.	.	.	.	.	.	.	.	.	.	.	.	.	.	.	.	.	.	.	.	.	.	.	.	.	.	.	.	.	.	.	.	.	.	.
*	*	*	*	*	*	*	*	*	*	*	*	*	*	*	*	*	*	*	*	*	*	*	*	*	*	*	*	*	*	*	*	*	*	*	*	*	*	*	*	*^	*	*	*	*	*	*
!	!	!LO:TX:a:t=gli altri	!	!LO:TX:a:t=1 solo	!	!	!	!	!	!	!	!	!	!	!	!	!	!	!	!	!	!	!	!	!	!	!	!	!	!	!	!	!	!	!	!	!	!	!	!	!	!	!	!	!	!	!
8r	.	8r	.	8r	.	16c	.	8r	.	8r	.	8G	8g	.	.	.	.	.	.	.	.	.	.	.	8r	.	.	8G~ 8g	.	.	8r	.	.	.	.	.	.	.	.	16e'LL 16g	8ryy	.	.	.	8r	.	.
.	.	.	.	.	.	16e	.	.	.	.	.	.	.	.	.	.	.	.	.	.	.	.	.	.	.	.	.	.	.	.	.	.	.	.	.	.	.	.	.	16e'JJ 16g	.	.	.	.	.	.	.
*	*	*	*	*clefC4	*	*	*	*	*	*	*	*	*	*	*	*	*	*	*	*	*	*	*	*	*	*	*	*	*	*	*	*	*	*	*	*	*	*	*	*	*	*	*	*	*	*	*
!	!	!LO:TX:a:t=arco	!	!LO:TX:a:t=arco	!	!	!	!	!	!	!	!	!	!	!	!	!	!	!	!	!	!	!	!	!	!	!	!	!	!	!	!	!	!	!	!	!	!	!	!	!	!	!	!	!	!	!
!	!	!LO:TX:b:i:t=  espr.	!	!LO:TX:b:i:t=  espr.	!	!	!	!	!	!	!	!	!	!	!	!	!	!	!	!	!	!	!	!	!	!	!	!	!	!	!	!	!	!	!	!	!	!	!	!	!	!	!	!	!LO:TX:a:t=a 2	!	!
8r	.	(8E	mf	(8e	mf	16c	.	([8gg~	mf	([8gg~	mf	8EJ	8eJ	.	.	.	.	.	.	.	.	.	.	.	(8e	.	mf	8r	.	.	(8E	.	.	.	.	.	.	(8E)	.	([8gg~	(8e	f mf	.	.	([8gg~	[8gg~	.
.	.	.	.	.	.	16eJJ)	.	.	.	.	.	.	.	.	.	.	.	.	.	.	.	.	.	.	.	.	.	.	.	.	.	.	.	.	.	.	.	.	.	.	.	.	.	.	.	.	.
*	*	*	*	*	*	*	*	*	*	*	*	*	*	*	*	*	*	*	*	*	*	*	*	*	*	*	*	*	*	*	*	*	*	*	*	*	*	*	*	*	*	*	*	*	*v	*v	*
!!pagebreak:original
=9	=9	=9	=9	=9	=9	=9	=9	=9	=9	=9	=9	=9	=9	=9	=9	=9	=9	=9	=9	=9	=9	=9	=9	=9	=9	=9	=9	=9	=9	=9	=9	=9	=9	=9	=9	=9	=9	=9	=9	=9	=9	=9	=9	=9	=9	=9
*	*	*	*	*	*	*^	*	*	*	*	*	*	*	*	*	*	*	*	*	*	*	*	*	*	*	*	*	*^	*	*	*	*	*	*	*	*	*	*	*	*	*	*	*	*	*	*
*	*	*	*	*	*	*tremolo	*	*	*	*	*	*	*	*	*	*	*	*	*	*	*	*	*	*	*	*	*	*	*	*	*	*	*	*	*	*	*	*	*	*	*	*	*	*	*	*	*	*
!	!	!	!	!	!	!LO:TX:a:t=div.	!	!	!	!	!	!	!	!	!	!	!	!	!	!	!	!	!	!	!	!	!	!	!LO:TX:a:t=1o	!	!	!	!	!	!	!	!	!	!	!	!	!	!	!	!	!	!	!
8%3r	.	8FL	.	8dL	.	32dLLL	32dLLL	mf	16ggLL]	.	16ggLL]	.	8FL	8dL	.	8%3r	.	8%3r	.	8%3r	.	8%3r	8%3r	8%3r	.	4d	8%3r	.	8r	8%3r	.	8%3r	8FL	.	8%3r	.	(8dL	(8dL	mf	8F)	.	16ggLL]	8dL	.	8%3r	.	16ggLL]	.
.	.	.	.	.	.	32d	32d	.	.	.	.	.	.	.	.	.	.	.	.	.	.	.	.	.	.	.	.	.	.	.	.	.	.	.	.	.	.	.	.	.	.	.	.	.	.	.	.	.
.	.	.	.	.	.	32d	32d	.	16ff	.	16ff	.	.	.	.	.	.	.	.	.	.	.	.	.	.	.	.	.	.	.	.	.	.	.	.	.	.	.	.	.	.	16ff	.	.	.	.	16ff	.
.	.	.	.	.	.	32d	32d	.	.	.	.	.	.	.	.	.	.	.	.	.	.	.	.	.	.	.	.	.	.	.	.	.	.	.	.	.	.	.	.	.	.	.	.	.	.	.	.	.
.	.	8d	.	8b	.	32b	32d	.	16ee	.	16ee	.	8r	8b	.	.	.	.	.	.	.	.	.	.	.	.	.	.	(8bXL	.	mf	.	8d	.	.	.	8b	8b	.	8r	.	16ee	8b	.	.	.	16ee	.
.	.	.	.	.	.	32b	32d	.	.	.	.	.	.	.	.	.	.	.	.	.	.	.	.	.	.	.	.	.	.	.	.	.	.	.	.	.	.	.	.	.	.	.	.	.	.	.	.	.
.	.	.	.	.	.	32b	32d	.	16dd	.	16dd	.	.	.	.	.	.	.	.	.	.	.	.	.	.	.	.	.	.	.	.	.	.	.	.	.	.	.	.	.	.	16dd	.	.	.	.	16dd	.
.	.	.	.	.	.	32b	32d	.	.	.	.	.	.	.	.	.	.	.	.	.	.	.	.	.	.	.	.	.	.	.	.	.	.	.	.	.	.	.	.	.	.	.	.	.	.	.	.	.
.	.	8cJ	.	8aJ	.	32a	32c	.	16ee	.	16ee	.	8cJ	8aJ	.	.	.	.	.	.	.	.	.	.	.	8c	.	.	8aJ	.	.	.	8cJ	.	.	.	8aJ	8aJ	.	8r	.	16ee	8aJ	.	.	.	16ee	.
.	.	.	.	.	.	32a	32c	.	.	.	.	.	.	.	.	.	.	.	.	.	.	.	.	.	.	.	.	.	.	.	.	.	.	.	.	.	.	.	.	.	.	.	.	.	.	.	.	.
.	.	.	.	.	.	.	.	.	(8qgg/	.	(8qgg/	.	.	.	.	.	.	.	.	.	.	.	.	.	.	.	.	.	.	.	.	.	.	.	.	.	.	.	.	.	.	(8qgg/	.	.	.	.	(8qgg/	.
.	.	.	.	.	.	32a	32c	.	16ffJJ))	.	16ffJJ))	.	.	.	.	.	.	.	.	.	.	.	.	.	.	.	.	.	.	.	.	.	.	.	.	.	.	.	.	.	.	16ffJJ)	.	.	.	.	16ffJJ)	.
.	.	.	.	.	.	32aJJJ	32cJJJ	.	.	.	.	.	.	.	.	.	.	.	.	.	.	.	.	.	.	.	.	.	.	.	.	.	.	.	.	.	.	.	.	.	.	.	.	.	.	.	.	.
=10	=10	=10	=10	=10	=10	=10	=10	=10	=10	=10	=10	=10	=10	=10	=10	=10	=10	=10	=10	=10	=10	=10	=10	=10	=10	=10	=10	=10	=10	=10	=10	=10	=10	=10	=10	=10	=10	=10	=10	=10	=10	=10	=10	=10	=10	=10	=10	=10
!LO:TX:a:t=tutti	!	!	!	!	!	!	!	!	!	!	!	!	!	!	!	!	!	!	!	!	!	!	!	!LO:TX:a:t=sempre con sord.	!	!	!	!	!	!	!	!LO:TX:b:i:t=  marc.	!	!	!	!	!	!	!	!	!	!	!	!	!	!	!	!
8r	.	8B)	.	4.g#X)	> ]	32g#XLLL	32BLLL	.	8ee	.	8ee	.	8%3r	8g#X	.	8%3r	.	8r	.	8r	.	8%3r	8%3r	8r	.	4BX)	8%3r	>	4g#X)	8%3r	>	8%3r	4B)	p	8r	.	8g#)	8g#)	.	8r	.	4ee)	4g#X)	.	8%3r	.	8ee')	.
.	.	.	.	.	.	32g#X	32B	.	.	.	.	.	.	.	.	.	.	.	.	.	.	.	.	.	.	.	.	.	.	.	.	.	.	.	.	.	.	.	.	.	.	.	.	.	.	.	.	.
.	.	.	.	.	.	32g#X	32B	.	.	.	.	.	.	.	.	.	.	.	.	.	.	.	.	.	.	.	.	.	.	.	.	.	.	.	.	.	.	.	.	.	.	.	.	.	.	.	.	.
.	.	.	.	.	.	32g#X	32B	.	.	.	.	.	.	.	.	.	.	.	.	.	.	.	.	.	.	.	.	.	.	.	.	.	.	.	.	.	.	.	.	.	.	.	.	.	.	.	.	.
*	*	*	*	*	*	*	*	*	*	*	*	*	*	*	*	*	*	*	*	*	*	*	*	*	*	*	*	*	*	*	*	*	*	*	*	*	*v	*v	*	*	*	*	*	*	*	*	*	*
8r	.	8r	.	.	.	32e 32g#	32B	pp <	(16g#XLL	pp <	[4bt	pp <	.	8b'L	pp	.	.	24Re\LL	pp	8r	.	.	.	24BLL 24b	pp	.	.	.	.	.	.	.	.	.	8r	.	(8B'L 8e	p	(16g#XLL	pp <	.	.	.	.	.	(16g#XLL	mf <
.	.	.	.	.	.	32e 32g#	32B	.	.	.	.	.	.	.	.	.	.	.	.	.	.	.	.	.	.	.	.	.	.	.	.	.	.	.	.	.	.	.	.	.	.	.	.	.	.	.	.
.	.	.	.	.	.	.	.	.	.	.	.	.	.	.	.	.	.	24Re\	.	.	.	.	.	24B 24b	.	.	.	.	.	.	.	.	.	.	.	.	.	.	.	.	.	.	.	.	.	.	.
.	.	.	.	.	.	32e 32g#	32B	.	16e	.	.	.	.	.	.	.	.	.	.	.	.	.	.	.	.	.	.	.	.	.	.	.	.	.	.	.	.	.	16bX	.	.	.	.	.	.	16b	.
.	.	.	.	.	.	.	.	.	.	.	.	.	.	.	.	.	.	24Re\J	.	.	.	.	.	24BJ 24b	.	.	.	.	.	.	.	.	.	.	.	.	.	.	.	.	.	.	.	.	.	.	.
.	.	.	.	.	.	32e 32g#	32B	.	.	.	.	.	.	.	.	.	.	.	.	.	.	.	.	.	.	.	.	.	.	.	.	.	.	.	.	.	.	.	.	.	.	.	.	.	.	.	.
!LO:TX:a:t=arco	!	!	!	!	!	!	!	!	!	!	!	!	!	!	!	!	!	!	!	!	!	!	!	!	!	!	!	!	!	!	!	!	!	!	!	!	!	!	!	!	!	!	!	!	!	!	!
!LO:TX:b:i:t=  ma marc.	!	!LO:TX:b:i:t=  ma marc.	!	!	!	!	!	!	!	!	!	!	!	!	!	!	!	!	!	!	!	!	!	!	!	!	!	!	!	!	!	!	!	!	!LO:TX:b:i:t=  marc.	!	!	!	!	!	!	!	!	!	!	!	!
[8BB~	p	[8BB~	p	.	.	32e 32g#	32B	.	16g#	.	.	.	.	8B'J	.	.	.	8Re\J	.	8BB	p	.	.	8B'J 8b	.	8r	.	]	8r	.	]	.	[8BB~	.	[8BB~	p	8B'J 8e	.	16g#	.	8r	8r	.	.	.	16g#	.
.	.	.	.	.	.	32e 32g#	32B	.	.	.	.	.	.	.	.	.	.	.	.	.	.	.	.	.	.	.	.	.	.	.	.	.	.	.	.	.	.	.	.	.	.	.	.	.	.	.	.
.	.	.	.	.	.	32e 32g#	32B	.	16eJJ)	.	.	.	.	.	.	.	.	.	.	.	.	.	.	.	.	.	.	.	.	.	.	.	.	.	.	.	.	.	16bJJ	.	.	.	.	.	.	16bJJ	.
.	.	.	.	.	.	32e 32g#JJJ	32BJJJ	.	.	.	.	.	.	.	.	.	.	.	.	.	.	.	.	.	.	.	.	.	.	.	.	.	.	.	.	.	.	.	.	.	.	.	.	.	.	.	.
*	*	*	*	*	*	*	*	*	*	*	*	*	*	*	*	*	*	*	*	*	*	*	*	*	*	*v	*v	*	*	*	*	*	*	*	*	*	*	*	*	*	*v	*v	*	*	*	*	*
*	*	*	*	*	*	*	*	*	*	*	*	*	*	*	*	*	*	*	*	*	*	*	*	*	*	*	*	*v	*v	*	*	*	*	*	*	*	*	*	*	*	*	*	*	*	*
=11	=11	=11	=11	=11	=11	=11	=11	=11	=11	=11	=11	=11	=11	=11	=11	=11	=11	=11	=11	=11	=11	=11	=11	=11	=11	=11	=11	=11	=11	=11	=11	=11	=11	=11	=11	=11	=11	=11	=11	=11	=11	=11	=11	=11
16BBLL]	.	16BBLL]	.	[4.Bt	pp < [	32f 32aLLL	32BLLL	.	(16aLL	.	4.b_	[	8%3r	8r	.	8%3r	.	8r	.	8r	.	8%3r	8%3r	8r	.	8%3r	.	8%3r	.	8%3r	16BBLL]	.	16BBLL]	.	8B'L 8fX	.	16aLL	.	8%3r	.	8%3r	.	16aLL	.
.	.	.	.	.	.	32f 32a	32B	.	.	.	.	.	.	.	.	.	.	.	.	.	.	.	.	.	.	.	.	.	.	.	.	.	.	.	.	.	.	.	.	.	.	.	.	.
16C	.	16C	.	.	.	32f 32a	32B	.	16f	.	.	.	.	.	.	.	.	.	.	.	.	.	.	.	.	.	.	.	.	.	16C	.	16C#	.	.	.	16bX	.	.	.	.	.	16b	.
.	.	.	.	.	.	32f 32a	32B	.	.	.	.	.	.	.	.	.	.	.	.	.	.	.	.	.	.	.	.	.	.	.	.	.	.	.	.	.	.	.	.	.	.	.	.	.
16D	.	16D	.	.	.	32f 32a	32B	.	16a	.	.	.	.	8b'L	.	.	.	24Re\LL	.	8r	.	.	.	24BLL 24b	.	.	.	.	.	.	16D	.	16D	.	8B' 8f	.	16a	.	.	.	.	.	16a	.
.	.	.	.	.	.	32f 32a	32B	.	.	.	.	.	.	.	.	.	.	.	.	.	.	.	.	.	.	.	.	.	.	.	.	.	.	.	.	.	.	.	.	.	.	.	.	.
.	.	.	.	.	.	.	.	.	.	.	.	.	.	.	.	.	.	24Re\	.	.	.	.	.	24B 24b	.	.	.	.	.	.	.	.	.	.	.	.	.	.	.	.	.	.	.	.
16E	.	16E	.	.	.	32f 32a	32B	.	16f	.	.	.	.	.	.	.	.	.	.	.	.	.	.	.	.	.	.	.	.	.	16E	.	16E	.	.	.	16b	.	.	.	.	.	16b	.
.	.	.	.	.	.	.	.	.	.	.	.	.	.	.	.	.	.	24Re\J	.	.	.	.	.	24BJ 24b	.	.	.	.	.	.	.	.	.	.	.	.	.	.	.	.	.	.	.	.
.	.	.	.	.	.	32f 32a	32B	.	.	.	.	.	.	.	.	.	.	.	.	.	.	.	.	.	.	.	.	.	.	.	.	.	.	.	.	.	.	.	.	.	.	.	.	.
16C	.	16C	.	.	.	32f 32a	32B	[	16a	.	.	.	.	8B'J	.	.	.	8Re\J	.	8BB	.	.	.	8B'J 8b	.	.	.	.	.	.	16C	.	16C#	.	8B'J 8f	.	16a	.	.	.	.	.	16a	.
.	.	.	.	.	.	32f 32a	32B	.	.	.	.	.	.	.	.	.	.	.	.	.	.	.	.	.	.	.	.	.	.	.	.	.	.	.	.	.	.	.	.	.	.	.	.	.
16DJJ	.	16DJJ	.	.	.	32f 32a	32B	.	16fJJ)	[	.	.	.	.	.	.	.	.	.	.	.	.	.	.	.	.	.	.	.	.	16DJJ	.	16DJJ	.	.	.	16bJJ	[	.	.	.	.	16bJJ	[
.	.	.	.	.	.	32f 32aJJJ	32BJJJ	.	.	.	.	.	.	.	.	.	.	.	.	.	.	.	.	.	.	.	.	.	.	.	.	.	.	.	.	.	.	.	.	.	.	.	.	.
=12	=12	=12	=12	=12	=12	=12	=12	=12	=12	=12	=12	=12	=12	=12	=12	=12	=12	=12	=12	=12	=12	=12	=12	=12	=12	=12	=12	=12	=12	=12	=12	=12	=12	=12	=12	=12	=12	=12	=12	=12	=12	=12	=12	=12
8BB'	.	8BB'	.	4.B_	.	32e 32g#XLLL	32BLLL	>	(16g#XLL	>	4.b_	>	8%3r	8r	.	8%3r	.	8r	.	8r	.	8%3r	8%3r	8r	.	8%3r	.	8%3r	.	8%3r	[4.BB	.	[4.BB	.	8B'L 8e	.	16g#XLL	>	8%3r	.	8%3r	.	16g#XLL	>
.	.	.	.	.	.	32e 32g#X	32B	.	.	.	.	.	.	.	.	.	.	.	.	.	.	.	.	.	.	.	.	.	.	.	.	.	.	.	.	.	.	.	.	.	.	.	.	.
.	.	.	.	.	.	32e 32g#X	32B	.	16e	.	.	.	.	.	.	.	.	.	.	.	.	.	.	.	.	.	.	.	.	.	.	.	.	.	.	.	16bX	.	.	.	.	.	16b	.
.	.	.	.	.	.	32e 32g#X	32B	.	.	.	.	.	.	.	.	.	.	.	.	.	.	.	.	.	.	.	.	.	.	.	.	.	.	.	.	.	.	.	.	.	.	.	.	.
8r	.	8r	.	.	.	32e 32g#	32B	.	16g#	.	.	.	.	8b'L	.	.	.	24Re\LL	.	8r	.	.	.	24BLL 24b	.	.	.	.	.	.	.	.	.	.	8B' 8e	.	16g#	.	.	.	.	.	16g#	.
.	.	.	.	.	.	32e 32g#	32B	.	.	.	.	.	.	.	.	.	.	.	.	.	.	.	.	.	.	.	.	.	.	.	.	.	.	.	.	.	.	.	.	.	.	.	.	.
.	.	.	.	.	.	.	.	.	.	.	.	.	.	.	.	.	.	24Re\	.	.	.	.	.	24B 24b	.	.	.	.	.	.	.	.	.	.	.	.	.	.	.	.	.	.	.	.
.	.	.	.	.	.	32e 32g#	32B	.	16e	.	.	.	.	.	.	.	.	.	.	.	.	.	.	.	.	.	.	.	.	.	.	.	.	.	.	.	16b	.	.	.	.	.	16b	.
.	.	.	.	.	.	.	.	.	.	.	.	.	.	.	.	.	.	24Re\J	.	.	.	.	.	24BJ 24b	.	.	.	.	.	.	.	.	.	.	.	.	.	.	.	.	.	.	.	.
.	.	.	.	.	.	32e 32g#	32B	.	.	.	.	.	.	.	.	.	.	.	.	.	.	.	.	.	.	.	.	.	.	.	.	.	.	.	.	.	.	.	.	.	.	.	.	.
[8BB~	.	[8BB~	.	.	.	32e 32g#	32B	.	16g#	.	.	.	.	8B'J	.	.	.	8Re\J	.	8BB	.	.	.	8B'J 8b	.	.	.	.	.	.	.	.	.	.	8B'J 8e	.	16g#	.	.	.	.	.	16g#	.
.	.	.	.	.	.	32e 32g#	32B	.	.	.	.	.	.	.	.	.	.	.	.	.	.	.	.	.	.	.	.	.	.	.	.	.	.	.	.	.	.	.	.	.	.	.	.	.
.	.	.	.	.	.	32e 32g#	32B	.	16eJJ)	.	.	.	.	.	.	.	.	.	.	.	.	.	.	.	.	.	.	.	.	.	.	.	.	.	.	.	16bJJ	.	.	.	.	.	16bJJ	.
.	.	.	.	.	.	32e 32g#JJJ	32BJJJ	.	.	.	.	.	.	.	.	.	.	.	.	.	.	.	.	.	.	.	.	.	.	.	.	.	.	.	.	.	.	.	.	.	.	.	.	.
=13	=13	=13	=13	=13	=13	=13	=13	=13	=13	=13	=13	=13	=13	=13	=13	=13	=13	=13	=13	=13	=13	=13	=13	=13	=13	=13	=13	=13	=13	=13	=13	=13	=13	=13	=13	=13	=13	=13	=13	=13	=13	=13	=13	=13
16BBLL]	.	16BBLL]	.	4.B]	> ]	32f 32aLLL	32BLLL	.	(16aLL	.	4.b_	]	8%3r	8r	.	8%3r	.	8r	.	8r	.	8%3r	8%3r	8r	.	8%3r	.	8%3r	.	8%3r	16BBLL]	.	16BBLL]	.	8B'L 8fX	.	16aLL	.	8%3r	.	8%3r	.	16aLL	.
.	.	.	.	.	.	32f 32a	32B	.	.	.	.	.	.	.	.	.	.	.	.	.	.	.	.	.	.	.	.	.	.	.	.	.	.	.	.	.	.	.	.	.	.	.	.	.
16C	.	16C	.	.	.	32f 32a	32B	.	16f	.	.	.	.	.	.	.	.	.	.	.	.	.	.	.	.	.	.	.	.	.	16C	.	16C#	.	.	.	16bX	.	.	.	.	.	16b	.
.	.	.	.	.	.	32f 32a	32B	.	.	.	.	.	.	.	.	.	.	.	.	.	.	.	.	.	.	.	.	.	.	.	.	.	.	.	.	.	.	.	.	.	.	.	.	.
16D	.	16D	.	.	.	32f 32a	32B	.	16a	.	.	.	.	8b'L	.	.	.	24Re\LL	.	8r	.	.	.	24BLL 24b	.	.	.	.	.	.	16D	.	16D	.	8B' 8f	.	16a	.	.	.	.	.	16a	.
.	.	.	.	.	.	32f 32a	32B	.	.	.	.	.	.	.	.	.	.	.	.	.	.	.	.	.	.	.	.	.	.	.	.	.	.	.	.	.	.	.	.	.	.	.	.	.
.	.	.	.	.	.	.	.	.	.	.	.	.	.	.	.	.	.	24Re\	.	.	.	.	.	24B 24b	.	.	.	.	.	.	.	.	.	.	.	.	.	.	.	.	.	.	.	.
16E	.	16E	.	.	.	32f 32a	32B	.	16f	.	.	.	.	.	.	.	.	.	.	.	.	.	.	.	.	.	.	.	.	.	16E	.	16E	.	.	.	16b	.	.	.	.	.	16b	.
.	.	.	.	.	.	.	.	.	.	.	.	.	.	.	.	.	.	24Re\J	.	.	.	.	.	24BJ 24b	.	.	.	.	.	.	.	.	.	.	.	.	.	.	.	.	.	.	.	.
.	.	.	.	.	.	32f 32a	32B	.	.	.	.	.	.	.	.	.	.	.	.	.	.	.	.	.	.	.	.	.	.	.	.	.	.	.	.	.	.	.	.	.	.	.	.	.
16C	.	16C	.	.	.	32f 32a	32B	]	16a	.	.	.	.	8B'J	.	.	.	8Re\J	.	8BB	.	.	.	8B'J 8b	.	.	.	.	.	.	16C	.	16C#	.	8B'J 8f	.	16a	.	.	.	.	.	16a	.
.	.	.	.	.	.	32f 32a	32B	.	.	.	.	.	.	.	.	.	.	.	.	.	.	.	.	.	.	.	.	.	.	.	.	.	.	.	.	.	.	.	.	.	.	.	.	.
16DJJ	.	16DJJ	.	.	.	32f 32a	32B	.	16fJJ)	]	.	.	.	.	.	.	.	.	.	.	.	.	.	.	.	.	.	.	.	.	16DJJ	.	16DJJ	.	.	.	16bJJ	]	.	.	.	.	16bJJ	]
.	.	.	.	.	.	32f 32aJJJ	32BJJJ	.	.	.	.	.	.	.	.	.	.	.	.	.	.	.	.	.	.	.	.	.	.	.	.	.	.	.	.	.	.	.	.	.	.	.	.	.
=14	=14	=14	=14	=14	=14	=14	=14	=14	=14	=14	=14	=14	=14	=14	=14	=14	=14	=14	=14	=14	=14	=14	=14	=14	=14	=14	=14	=14	=14	=14	=14	=14	=14	=14	=14	=14	=14	=14	=14	=14	=14	=14	=14	=14
4BB	>	4BB	>	(4B	<	32e 32g#XLLL	32BLLL	<	(16g#XLL	<	4.b_	< [	8%3r	8r	.	8%3r	.	8r	.	8r	.	8%3r	8%3r	8r	.	8%3r	.	8%3r	.	4B	8BB'	p <	8BB'	.	8B' 8e)	.	16g#XLL	<	8%3r	.	8%3r	.	16g#XLL	<
.	.	.	.	.	.	32e 32g#X	32B	.	.	.	.	.	.	.	.	.	.	.	.	.	.	.	.	.	.	.	.	.	.	.	.	.	.	.	.	.	.	.	.	.	.	.	.	.
.	.	.	.	.	.	32e 32g#X	32B	.	16e	.	.	.	.	.	.	.	.	.	.	.	.	.	.	.	.	.	.	.	.	.	.	.	.	.	.	.	16bX	.	.	.	.	.	16b	.
.	.	.	.	.	.	32e 32g#X	32B	.	.	.	.	.	.	.	.	.	.	.	.	.	.	.	.	.	.	.	.	.	.	.	.	.	.	.	.	.	.	.	.	.	.	.	.	.
.	.	.	.	.	.	32e 32g#X	32B	.	16g#	.	.	.	.	8b'L	.	.	.	24Re\LL	.	8r	.	.	.	24BLL 24b	.	.	.	.	.	.	8r	.	8r	.	8r	.	16g#	.	.	.	.	.	16g#	.
.	.	.	.	.	.	32e 32g#X	32B	.	.	.	.	.	.	.	.	.	.	.	.	.	.	.	.	.	.	.	.	.	.	.	.	.	.	.	.	.	.	.	.	.	.	.	.	.
.	.	.	.	.	.	.	.	.	.	.	.	.	.	.	.	.	.	24Re\	.	.	.	.	.	24B 24b	.	.	.	.	.	.	.	.	.	.	.	.	.	.	.	.	.	.	.	.
.	.	.	.	.	.	32e 32g#X	32B	.	16e	.	.	.	.	.	.	.	.	.	.	.	.	.	.	.	.	.	.	.	.	.	.	.	.	.	.	.	16b	.	.	.	.	.	16b	.
.	.	.	.	.	.	.	.	.	.	.	.	.	.	.	.	.	.	24Re\J	.	.	.	.	.	24BJ 24b	.	.	.	.	.	.	.	.	.	.	.	.	.	.	.	.	.	.	.	.
.	.	.	.	.	.	32e 32g#X	32BJJJ	.	.	.	.	.	.	.	.	.	.	.	.	.	.	.	.	.	.	.	.	.	.	.	.	.	.	.	.	.	.	.	.	.	.	.	.	.
8r	]	8r	]	[8eL	[	32e 32g#X	32eLLL	[	16g#	.	.	.	.	8B'J	.	.	.	8Re\J	.	8BB	.	.	.	8B'J 8b	.	.	.	.	.	([8eL	8r	[	8r	.	8r	.	16g#	.	.	.	.	.	16g#	.
.	.	.	.	.	.	32e 32g#X	32e	.	.	.	.	.	.	.	.	.	.	.	.	.	.	.	.	.	.	.	.	.	.	.	.	.	.	.	.	.	.	.	.	.	.	.	.	.
.	.	.	.	.	.	32e 32g#X	32e	.	16eJJ)	[	.	.	.	.	.	.	.	.	.	.	.	.	.	.	.	.	.	.	.	.	.	.	.	.	.	.	16bJJ	[	.	.	.	.	16bJJ	[
.	.	.	.	.	.	32e 32g#XJJJ	32e	.	.	.	.	.	.	.	.	.	.	.	.	.	.	.	.	.	.	.	.	.	.	.	.	.	.	.	.	.	.	.	.	.	.	.	.	.
=15	=15	=15	=15	=15	=15	=15	=15	=15	=15	=15	=15	=15	=15	=15	=15	=15	=15	=15	=15	=15	=15	=15	=15	=15	=15	=15	=15	=15	=15	=15	=15	=15	=15	=15	=15	=15	=15	=15	=15	=15	=15	=15	=15	=15
!LO:TX:a:t=pizz.	!	!	!	!	!	!	!	!	!	!	!	!	!	!	!	!	!	!	!	!	!	!	!	!	!	!	!	!	!	!	!	!	!	!	!	!	!	!	!	!	!	!	!	!
8E	.	8r	.	8eJ]	>	32g#XLLL	32e	>	(16g#XLL	>	4b]	>	8%3r	8%3r	.	8%3r	.	8r	.	8E	.	8%3r	8%3r	8%3r	.	8%3r	.	8%3r	.	8eJ]	8%3r	.	(4.EE	.	8%3r	.	16g#XLL	>	8%3r	.	8%3r	.	16g#XLL	>
.	.	.	.	.	.	32g#X	32e	.	.	.	.	.	.	.	.	.	.	.	.	.	.	.	.	.	.	.	.	.	.	.	.	.	.	.	.	.	.	.	.	.	.	.	.	.
.	.	.	.	.	.	32g#X	32e	.	16b	.	.	.	.	.	.	.	.	.	.	.	.	.	.	.	.	.	.	.	.	.	.	.	.	.	.	.	16bX	.	.	.	.	.	16b	.
.	.	.	.	.	.	32g#X	32eJJJ	.	.	.	.	.	.	.	.	.	.	.	.	.	.	.	.	.	.	.	.	.	.	.	.	.	.	.	.	.	.	.	.	.	.	.	.	.
!	!	!LO:TX:a:t=pizz.	!	!	!	!	!	!	!	!	!	!	!	!	!	!	!	!	!	!	!	!	!	!	!	!	!	!	!	!	!	!	!	!	!	!	!	!	!	!	!	!	!	!
8r	.	8EL	.	4d	]	32g#X	32dLLL	]	16g#	.	.	.	.	.	.	.	.	24Re\LL	.	8r	.	.	.	.	.	.	.	.	.	4d	.	> ]	.	.	.	.	16g#	.	.	.	.	.	16g#	.
.	.	.	.	.	.	32g#X	32d	.	.	.	.	.	.	.	.	.	.	.	.	.	.	.	.	.	.	.	.	.	.	.	.	.	.	.	.	.	.	.	.	.	.	.	.	.
.	.	.	.	.	.	.	.	.	.	.	.	.	.	.	.	.	.	24Re\	.	.	.	.	.	.	.	.	.	.	.	.	.	.	.	.	.	.	.	.	.	.	.	.	.	.
.	.	.	.	.	.	32g#X	32d	.	16b	.	.	.	.	.	.	.	.	.	.	.	.	.	.	.	.	.	.	.	.	.	.	.	.	.	.	.	16b	.	.	.	.	.	16b	.
.	.	.	.	.	.	.	.	.	.	.	.	.	.	.	.	.	.	24Re\J	.	.	.	.	.	.	.	.	.	.	.	.	.	.	.	.	.	.	.	.	.	.	.	.	.	.
.	.	.	.	.	.	32g#X	32d	.	.	.	.	.	.	.	.	.	.	.	.	.	.	.	.	.	.	.	.	.	.	.	.	.	.	.	.	.	.	.	.	.	.	.	.	.
8r	.	8EEJ	.	.	.	32g#X	32d	.	16g#	.	(16a#XLL	.	.	.	.	.	.	8Re\J	.	8E	.	.	.	.	.	.	.	.	.	.	.	.	.	.	.	.	16g#	.	.	.	.	.	16g#	.
.	.	.	.	.	.	32g#X	32d	.	.	.	.	.	.	.	.	.	.	.	.	.	.	.	.	.	.	.	.	.	.	.	.	.	.	.	.	.	.	.	.	.	.	.	.	.
.	.	.	.	.	.	32g#X	32d	.	16bJJ)	]	16bJJ	]	.	.	.	.	.	.	.	.	.	.	.	.	.	.	.	.	.	.	.	.	.	.	.	.	16bJJ	]	.	.	.	.	16bJJ	]
.	.	.	.	.	.	32g#XJJJ	32dJJJ	.	.	.	.	.	.	.	.	.	.	.	.	.	.	.	.	.	.	.	.	.	.	.	.	.	.	.	.	.	.	.	.	.	.	.	.	.
*	*	*	*	*	*	*Xtremolo	*	*	*	*	*	*	*	*	*	*	*	*	*	*	*	*	*	*	*	*	*	*	*	*	*	*	*	*	*	*	*	*	*	*	*	*	*	*
=16	=16	=16	=16	=16	=16	=16	=16	=16	=16	=16	=16	=16	=16	=16	=16	=16	=16	=16	=16	=16	=16	=16	=16	=16	=16	=16	=16	=16	=16	=16	=16	=16	=16	=16	=16	=16	=16	=16	=16	=16	=16	=16	=16	=16
!	!	!	!	!	!	!	!	!	!	!	!	!	!	!	!	!	!	!	!	!	!	!	!	!	!	!LO:TX:b:i:t=  dolce ma marc.	!	!LO:TX:a:t=1o	!	!	!	!	!	!	!	!	!	!	!	!	!	!	!	!
!LO:TX:a:t=1. metà	!	!	!	!	!	!	!	!	!	!	!	!	!	!	!	!	!	!	!	!	!	!	!	!	!	!LO:TX:a:t=3o	!	!LO:TX:b:i:t=  dolce ma marc.	!	!	!	!	!	!	!LO:TX:a:t=a2	!	!	!	!	!	!	!	!	!
8A	p	8AAL	.	4.c#X)	p	((16aLL	(16c#XLL	p p <	[4.ee	p	[4.ee)	p	8%3r	8%3r	.	[4.Re\	pp	8%3r	.	8AA	.	8%3r	8%3r	8%3r	.	(4a	p	(4a	p	(4.c#X)	8r	pp	4AA)	p	(16c#LL	mf <	8a')	.	8%3r	.	8%3r	.	8ee')	.
.	.	.	.	.	.	16e	16e	.	.	.	.	.	.	.	.	.	.	.	.	.	.	.	.	.	.	.	.	.	.	.	.	.	.	.	16e	.	.	.	.	.	.	.	.	.
8r	.	8E	.	.	.	16c#	16c#	.	.	.	.	.	.	.	.	.	.	.	.	8r	.	.	.	.	.	.	.	.	.	.	8E'L	.	.	.	16c#	.	8r	.	.	.	.	.	8r	.
.	.	.	.	.	.	16e	16e	.	.	.	.	.	.	.	.	.	.	.	.	.	.	.	.	.	.	.	.	.	.	.	.	.	.	.	16e	.	.	.	.	.	.	.	.	.
8E	.	8EEJ	.	.	.	16c#	16c#	.	.	.	.	.	.	.	.	.	.	.	.	8r	.	.	.	.	.	[8g	.	[8g	.	.	8EE'J	.	8r	.	16c#	.	8r	.	.	.	.	.	8r	.
.	.	.	.	.	.	16eJJ)	16eJJ)	[	.	.	.	.	.	.	.	.	.	.	.	.	.	.	.	.	.	.	.	.	.	.	.	.	.	.	16eJJ	[	.	.	.	.	.	.	.	.
*	*	*	*	*	*	*v	*v	*	*	*	*	*	*	*	*	*	*	*	*	*	*	*	*	*	*	*	*	*	*	*	*	*	*	*	*	*	*	*	*	*	*	*	*	*
!!pagebreak:original
=17	=17	=17	=17	=17	=17	=17	=17	=17	=17	=17	=17	=17	=17	=17	=17	=17	=17	=17	=17	=17	=17	=17	=17	=17	=17	=17	=17	=17	=17	=17	=17	=17	=17	=17	=17	=17	=17	=17	=17	=17	=17	=17	=17
!	!	!	!	!	!	!LO:TX:a:t=unis.	!	!	!	!	!	!	!	!	!	!	!	!	!	!	!	!	!	!	!	!	!	!	!	!	!	!	!	!	!	!	!	!	!	!	!	!	!
8B-X	.	8BB-XL	.	(4.d	> ]	(16dLL	>	(16eeLL]	.	(16eeLL]	.	8%3r	8%3r	.	8%3r	.	8%3r	.	8%3r	.	8%3r	8%3r	8%3r	.	8g]	.	8g]	.	8d)	8r	.	8%3r	.	16dLL	>	8%3r	.	8%3r	.	8%3r	.	8%3r	.
.	.	.	.	.	.	16e	.	16ff	.	16ff	.	.	.	.	.	.	.	.	.	.	.	.	.	.	.	.	.	.	.	.	.	.	.	16e	.	.	.	.	.	.	.	.	.
8r	.	8E	.	.	.	16d	.	16gg	.	16gg	.	.	.	.	.	.	.	.	.	.	.	.	.	.	4b-	.	4b-	.	8r	8E'L	.	.	.	16d	.	.	.	.	.	.	.	.	.
.	.	.	.	.	.	16e	.	16aa	.	16aa	.	.	.	.	.	.	.	.	.	.	.	.	.	.	.	.	.	.	.	.	.	.	.	16e	.	.	.	.	.	.	.	.	.
8r	.	8EEJ	.	.	.	16d	.	16ff	.	16ff	.	.	.	.	.	.	.	.	.	.	.	.	.	.	.	.	.	.	8r	8EE'J	.	.	.	16d	.	.	.	.	.	.	.	.	.
.	.	.	.	.	.	16eJJ))	]	16ggJJ)	.	16ggJJ)	.	.	.	.	.	.	.	.	.	.	.	.	.	.	.	.	.	.	.	.	.	.	.	16eJJ	]	.	.	.	.	.	.	.	.
=18	=18	=18	=18	=18	=18	=18	=18	=18	=18	=18	=18	=18	=18	=18	=18	=18	=18	=18	=18	=18	=18	=18	=18	=18	=18	=18	=18	=18	=18	=18	=18	=18	=18	=18	=18	=18	=18	=18	=18	=18	=18	=18	=18
8A	.	8AAL	.	4.c#X)	.	((16c#XLL	<	[4.ee	.	[4.ee	.	8%3r	8%3r	.	4.Re\_	.	8%3r	.	8%3r	.	8%3r	8%3r	8%3r	.	4a	.	4a	.	(4.c#X	8r	.	8%3r	.	16c#LL	<	8%3r	.	8%3r	.	8%3r	.	8%3r	.
.	.	.	.	.	.	16e	.	.	.	.	.	.	.	.	.	.	.	.	.	.	.	.	.	.	.	.	.	.	.	.	.	.	.	16e	.	.	.	.	.	.	.	.	.
8r	.	8E	.	.	.	16c#	.	.	.	.	.	.	.	.	.	.	.	.	.	.	.	.	.	.	.	.	.	.	.	8E'L	.	.	.	16c#	.	.	.	.	.	.	.	.	.
.	.	.	.	.	.	16e	.	.	.	.	.	.	.	.	.	.	.	.	.	.	.	.	.	.	.	.	.	.	.	.	.	.	.	16e	.	.	.	.	.	.	.	.	.
8E	.	8EEJ	.	.	.	16c#	.	.	.	.	.	.	.	.	.	.	.	.	.	.	.	.	.	.	[8g	.	[8g	.	.	8EE'J	.	.	.	16c#	.	.	.	.	.	.	.	.	.
.	.	.	.	.	.	16eJJ)	[	.	.	.	.	.	.	.	.	.	.	.	.	.	.	.	.	.	.	.	.	.	.	.	.	.	.	16eJJ	[	.	.	.	.	.	.	.	.
=19	=19	=19	=19	=19	=19	=19	=19	=19	=19	=19	=19	=19	=19	=19	=19	=19	=19	=19	=19	=19	=19	=19	=19	=19	=19	=19	=19	=19	=19	=19	=19	=19	=19	=19	=19	=19	=19	=19	=19	=19	=19	=19	=19
8B-X	.	8BB-XL	.	(4.d	> ]	(16dLL	>	(16eeLL]	.	(16eeLL]	.	8%3r	8%3r	.	8%3r	.	8%3r	.	8%3r	.	8%3r	8%3r	8%3r	.	8g]	.	8g]	.	8d)	8r	.	8%3r	.	16dLL	>	8%3r	.	8%3r	.	8%3r	.	8%3r	.
.	.	.	.	.	.	16e	.	16ff	.	16ff	.	.	.	.	.	.	.	.	.	.	.	.	.	.	.	.	.	.	.	.	.	.	.	16e	.	.	.	.	.	.	.	.	.
8r	.	8E	.	.	.	16d	.	16gg	.	16gg	.	.	.	.	.	.	.	.	.	.	.	.	.	.	4b-	.	4b-	.	8r	8E'L	.	.	.	16d	.	.	.	.	.	.	.	.	.
.	.	.	.	.	.	16e	.	16aa	.	16aa	.	.	.	.	.	.	.	.	.	.	.	.	.	.	.	.	.	.	.	.	.	.	.	16e	.	.	.	.	.	.	.	.	.
8r	.	8EEJ	.	.	.	16d	.	16ff	.	16ff	.	.	.	.	.	.	.	.	.	.	.	.	.	.	.	.	.	.	8r	8EE'J	.	.	.	16d	.	.	.	.	.	.	.	.	.
.	.	.	.	.	.	16eJJ))	]	16ggJJ)	.	16ggJJ)	.	.	.	.	.	.	.	.	.	.	.	.	.	.	.	.	.	.	.	.	.	.	.	16eJJ	]	.	.	.	.	.	.	.	.
=20	=20	=20	=20	=20	=20	=20	=20	=20	=20	=20	=20	=20	=20	=20	=20	=20	=20	=20	=20	=20	=20	=20	=20	=20	=20	=20	=20	=20	=20	=20	=20	=20	=20	=20	=20	=20	=20	=20	=20	=20	=20	=20	=20
8A	.	8AAL	.	4.c#X)	.	(16c#XLL	<	[4.ee	.	[4.ee	.	8%3r	8%3r	.	4.Re\_	.	8%3r	.	8%3r	.	8%3r	8%3r	8%3r	.	4a	.	4a	.	(4.c#X	8r	.	8%3r	.	16c#LL	<	8%3r	.	8%3r	.	8%3r	.	8%3r	.
.	.	.	.	.	.	16e	.	.	.	.	.	.	.	.	.	.	.	.	.	.	.	.	.	.	.	.	.	.	.	.	.	.	.	16e	.	.	.	.	.	.	.	.	.
8r	.	8E	.	.	.	16c#	.	.	.	.	.	.	.	.	.	.	.	.	.	.	.	.	.	.	.	.	.	.	.	8E'L	.	.	.	16c#	.	.	.	.	.	.	.	.	.
.	.	.	.	.	.	16e	.	.	.	.	.	.	.	.	.	.	.	.	.	.	.	.	.	.	.	.	.	.	.	.	.	.	.	16e	.	.	.	.	.	.	.	.	.
8E	.	8EEJ	.	.	.	16c#	.	.	.	.	.	.	.	.	.	.	.	.	.	.	.	.	.	.	[8g	.	[8g	.	.	8EE'J	.	.	.	16c#	.	.	.	.	.	.	.	.	.
.	.	.	.	.	.	16eJJ)	[	.	.	.	.	.	.	.	.	.	.	.	.	.	.	.	.	.	.	.	.	.	.	.	.	.	.	16eJJ	[	.	.	.	.	.	.	.	.
*	*	*	*	*	*	*	*	*	*	*	*	*	*	*	*	*	*	*	*	*	*	*	*	*	*	*	*	*	*v	*v	*	*	*	*	*	*	*	*	*	*	*	*	*
=21	=21	=21	=21	=21	=21	=21	=21	=21	=21	=21	=21	=21	=21	=21	=21	=21	=21	=21	=21	=21	=21	=21	=21	=21	=21	=21	=21	=21	=21	=21	=21	=21	=21	=21	=21	=21	=21	=21	=21	=21	=21	=21
!LO:TX:a:t=tutti	!	!	!	!	!	!	!	!	!	!	!	!	!	!	!	!	!	!	!	!	!	!	!	!	!	!	!	!	!	!	!	!	!	!	!	!	!	!	!	!	!	!
8A	.	8AAL	.	16%3.c#Xt	.	16%3.c#Xt	mf	(16eeLL]	.	(16eeLL]	.	8%3r	8%3r	.	8%3r	.	8%3r	.	8%3r	.	8%3r	8%3r	8%3r	.	8g]	.	8g]	.	([4.AA 4.E)	p	8%3r	.	16%3.c#t	f <	8%3r	.	8%3r	.	8%3r	.	8%3r	.
.	.	.	.	.	.	.	.	16ff	.	16ff	.	.	.	.	.	.	.	.	.	.	.	.	.	.	.	.	.	.	.	.	.	.	.	.	.	.	.	.	.	.	.	.
8r	.	8E	.	.	.	.	.	16ee	.	16ee	.	.	.	.	.	.	.	.	.	.	.	.	.	.	4a	.	4a	.	.	.	.	.	.	.	.	.	.	.	.	.	.	.
.	.	.	.	.	.	.	.	16dd	.	16dd	.	.	.	.	.	.	.	.	.	.	.	.	.	.	.	.	.	.	.	.	.	.	.	.	.	.	.	.	.	.	.	.
8AA	.	8AAJ	.	.	.	.	.	16ee	.	16ee	.	.	.	.	.	.	.	.	.	.	.	.	.	.	.	.	.	.	.	.	.	.	.	.	.	.	.	.	.	.	.	.
.	.	.	.	(64%3BLL	.	(64%3BLL	.	.	.	.	.	.	.	.	.	.	.	.	.	.	.	.	.	.	.	.	.	.	.	.	.	.	(64%3B#XLL	.	.	.	.	.	.	.	.	.
.	.	.	.	.	.	.	.	(8qgg/	.	(8qgg/	.	.	.	.	.	.	.	.	.	.	.	.	.	.	.	.	.	.	.	.	.	.	.	.	.	.	.	.	.	.	.	.
.	.	.	.	.	.	.	.	16ffJJ)	.	16ffJJ)	.	.	.	.	.	.	.	.	.	.	.	.	.	.	.	.	.	.	.	.	.	.	.	.	.	.	.	.	.	.	.	.
.	.	.	.	64%3c#JJ	.	64%3c#JJ	.	.	.	.	.	.	.	.	.	.	.	.	.	.	.	.	.	.	.	.	.	.	.	.	.	.	64%3c#JJ	[	.	.	.	.	.	.	.	.
=22	=22	=22	=22	=22	=22	=22	=22	=22	=22	=22	=22	=22	=22	=22	=22	=22	=22	=22	=22	=22	=22	=22	=22	=22	=22	=22	=22	=22	=22	=22	=22	=22	=22	=22	=22	=22	=22	=22	=22	=22	=22	=22
8D	.	8D'	.	8d')	.	8d')	.	8dd')	.	8dd')	.	8%3r	8%3r	.	8Re\]	.	8%3r	.	8%3r	.	8%3r	8%3r	8%3r	.	4f)	.	4f)	.	8AA] 8F)	.	8r	.	8d'))	.	8%3r	.	8%3r	.	8%3r	.	8r	.
*	*	*	*	*clefF4	*	*	*	*	*	*	*	*	*	*	*	*	*	*	*	*	*	*	*	*	*	*	*	*	*	*	*	*	*	*	*	*	*	*	*	*	*	*
!	!	!LO:TX:a:t=div.arco	!	!	!	!	!	!	!	!	!	!	!	!	!	!	!	!	!	!	!	!	!	!	!	!	!	!	!	!	!	!	!	!	!	!	!	!	!	!	!LO:TX:a:t=a2	!
.	.	.	.	.	.	(((8qe/	<	(((8qee/	<	(((8qee/	<	.	.	.	.	.	.	.	.	.	.	.	.	.	.	.	.	.	.	.	.	.	((8qe/	p <	.	.	.	.	.	.	((8qee/	mf <
8r	.	(((16DDLL 16D	<	((16DLL	<	16dLL)	.	16ddLL)	.	16ddLL)	.	.	.	.	8r	.	.	.	.	.	.	.	.	.	.	.	.	.	(16DDLL 16D	<	(16DLL	p <	16dLL)	.	.	.	.	.	.	.	16ddLL)	.
.	.	16CC#X 16C#X	.	16C#X	.	16c#X	.	16cc#X	.	16cc#X	.	.	.	.	.	.	.	.	.	.	.	.	.	.	.	.	.	.	16CC#X 16C#X	.	16C#	.	16c#	.	.	.	.	.	.	.	16cc#X	.
8r	.	16DD 16D	.	16D	.	16d	.	16dd	.	16dd	.	.	.	.	8r	.	.	.	.	.	.	.	.	.	8r	.	8r	.	16DD 16D	.	16D	.	16d	.	.	.	.	.	.	.	16dd	.
.	.	16EEJJ 16E)	.	16EJJ)	.	16eJJ)	.	16eeJJ)	.	16eeJJ)	.	.	.	.	.	.	.	.	.	.	.	.	.	.	.	.	.	.	16EEJJ 16E	.	16EJJ	.	16eJJ	.	.	.	.	.	.	.	16eeJJ	.
=23	=23	=23	=23	=23	=23	=23	=23	=23	=23	=23	=23	=23	=23	=23	=23	=23	=23	=23	=23	=23	=23	=23	=23	=23	=23	=23	=23	=23	=23	=23	=23	=23	=23	=23	=23	=23	=23	=23	=23	=23	=23	=23
!LO:TX:a:t=arco	!	!	!	!	!	!	!	!	!	!	!	!	!	!	!	!	!	!	!	!	!	!	!	!	!	!	!	!	!	!	!	!	!	!	!	!	!	!	!	!	!	!
(16FLL	<	(16FFLL 16F	.	(16FLL	.	(16fLL	.	(16ffLL	.	(16ffLL	.	8%3r	8%3r	.	8%3r	.	8%3r	.	8%3r	.	8%3r	8%3r	8%3r	.	8%3r	.	8%3r	.	16FFLL 16F	.	16FXLL	.	16fXLL	.	8%3r	.	8%3r	.	8%3r	.	16ffLL	.
16G	.	16GG 16G	.	16G	.	16g	.	16gg	.	16gg	.	.	.	.	.	.	.	.	.	.	.	.	.	.	.	.	.	.	16GG 16G	.	16GX	.	16gX	.	.	.	.	.	.	.	16gg	.
16A	.	16AA 16A	.	16A	.	16a	.	16aa	.	16aa	.	.	.	.	.	.	.	.	.	.	.	.	.	.	.	.	.	.	16AA 16A	.	16A	.	16a	.	.	.	.	.	.	.	16aa	.
16B	.	16BB 16B	.	16B	.	16b	.	16bb	.	16bb	.	.	.	.	.	.	.	.	.	.	.	.	.	.	.	.	.	.	16BB 16B	.	16B	.	16b	.	.	.	.	.	.	.	16bb	.
16c#X	.	16C#X 16c#X	.	16c#X	.	16cc#X	.	16ccc#X	.	16ccc#X	.	.	.	.	.	.	.	.	.	.	.	.	.	.	.	.	.	.	16C#X 16c#X	.	16c#	.	16cc#	.	.	.	.	.	.	.	16ccc#X	.
16dJJ	[	16DJJ 16d))	[	16dJJ)	[	16ddJJ)	[	16dddJJ)	[	16dddJJ)	[	.	.	.	.	.	.	.	.	.	.	.	.	.	.	.	.	.	16DJJ 16d	[	16dJJ	[	16ddJJ	[	.	.	.	.	.	.	16dddJJ	[
=24	=24	=24	=24	=24	=24	=24	=24	=24	=24	=24	=24	=24	=24	=24	=24	=24	=24	=24	=24	=24	=24	=24	=24	=24	=24	=24	=24	=24	=24	=24	=24	=24	=24	=24	=24	=24	=24	=24	=24	=24	=24	=24
*	*	*	*	*	*	*	*	*	*	*	*	*	*	*	*	*	*	*	*	*	*	*	*	*	*	*	*	*	*^	*	*	*	*	*	*	*	*	*	*	*	*	*
!	!	!	!	!	!	!	!	!	!	!	!	!	!	!	!	!	!	!	!	!	!	!	!	!	!	!	!	!	!LO:TX:b:i:t=  marc.	!	!	!LO:TX:b:i:t=  marc.	!	!LO:TX:b:i:t=  marc.	!	!LO:TX:b:i:t=  marc.	!	!LO:TX:b:i:t=  marc.	!	!LO:TX:b:i:t=  marc.	!	!LO:TX:b:i:t=  marc.	!
8f')	f	8F' 8f)	f	8f')	f	8ff')	f	8fff')	f	8fff')	f	8%3r	8%3r	.	8%3r	.	8Re\L	f	8%3r	.	8%3r	8%3r	8%3r	.	8%3r	.	8%3r	.	8f')	8F'	f	8fX')	f	8ffX')	f	8ff'	f	8ff' 8fff	f	8fff'	f	8fff')	f
!	!	!	!	!	!	!	!	!	!	!	!	!	!	!	!	!	!	!	!	!	!	!	!	!	!	!	!	!	!LO:TX:a:t=1o	!	!	!	!	!	!	!	!	!	!	!	!	!	!
8r	.	8r	.	8r	.	(24eeLL	.	(24eeeLL	.	(24eeeLL	.	.	.	.	.	.	24Re\L	.	.	.	.	.	.	.	.	.	.	.	(24eLL	8r	.	(24eLL	.	(24eeLL	.	(24eeLL	.	(24eeLL 24eee	.	(24eeeLL	.	(24eeeLL	.
.	.	.	.	.	.	24ff	.	24fff	.	24fff	.	.	.	.	.	.	24Re\	.	.	.	.	.	.	.	.	.	.	.	24f	.	.	24f	.	24ff	.	24ff	.	24ff 24fff	.	24fff	.	24fff	.
.	.	.	.	.	.	24eeJJ	.	24eeeJJ	.	24eeeJJ	.	.	.	.	.	.	24Re\J	.	.	.	.	.	.	.	.	.	.	.	24eJJ	.	.	24eJJ	.	24eeJJ	.	24eeJJ	.	24eeJJ 24eee	.	24eeeJJ	.	24eeeJJ	.
8r	.	8r	.	8r	.	8dd')	.	8ddd')	.	8ddd')	.	.	.	.	.	.	8Re\J	.	.	.	.	.	.	.	.	.	.	.	8d')	8r	.	8d')	.	8dd')	.	8dd')	.	8dd' 8ddd)	.	8ddd')	.	8ddd')	.
*	*	*	*	*	*	*	*	*	*	*	*	*	*	*	*	*	*	*	*	*	*	*	*	*	*	*	*	*	*v	*v	*	*	*	*	*	*	*	*	*	*	*	*	*
=	=	=	=	=	=	=	=	=	=	=	=	=	=	=	=	=	=	=	=	=	=	=	=	=	=	=	=	=	=	=	=	=	=	=	=	=	=	=	=	=	=	=
*-	*-	*-	*-	*-	*-	*-	*-	*-	*-	*-	*-	*-	*-	*-	*-	*-	*-	*-	*-	*-	*-	*-	*-	*-	*-	*-	*-	*-	*-	*-	*-	*-	*-	*-	*-	*-	*-	*-	*-	*-	*-	*-
!!!system-decoration: [(s1,s2,s3,s4,s5,s6,s7)][([(s8,s9)]s10,s11,s12)][(s13,s14,s15)][({(s16,s17)})][(s18,s19,s20[(s21,s22)]s23)]
